Newaita-dark/apps/48/com.github.tkashkin.boiler.svg

<svg height="48" viewBox="0 0 48 48" width="48" xmlns="http://www.w3.org/2000/svg" xmlns:xlink="http://www.w3.org/1999/xlink"><linearGradient id="a"><stop offset="0" stop-opacity=".313726"/><stop offset=".222222" stop-opacity=".27451"/><stop offset="1" stop-opacity="0"/></linearGradient><radialGradient id="b" cx="450.908936" cy="189.579361" gradientTransform="matrix(.00000026 -.117199 -.210958 -.00000015 66.784728 95.392994)" gradientUnits="userSpaceOnUse" r="21.166656" xlink:href="#a"/><radialGradient id="c" cx="450.908936" cy="189.579361" gradientTransform="matrix(-.00000026 .117199 .210958 .00000015 -19.155178 -11.291223)" gradientUnits="userSpaceOnUse" r="21.166656" xlink:href="#a"/><radialGradient id="d" cx="450.908936" cy="189.579361" gradientTransform="matrix(-.00000026 -.117199 .210958 -.00000015 -19.155178 95.392994)" gradientUnits="userSpaceOnUse" r="21.166656" xlink:href="#a"/><radialGradient id="e" cx="450.908936" cy="189.579361" gradientTransform="matrix(.00000026 .117199 -.210958 .00000015 66.784725 -11.291224)" gradientUnits="userSpaceOnUse" r="21.166656" xlink:href="#a"/><linearGradient id="f" gradientTransform="matrix(.0200401 0 0 .093759 18.698079 20.158175)" gradientUnits="userSpaceOnUse" x1="255.323059" x2="255.323044" y1="233.5" y2="254.666656"><stop offset="0" stop-opacity=".27451"/><stop offset="1" stop-opacity="0"/></linearGradient><linearGradient id="g" gradientUnits="userSpaceOnUse" x1="27.7839180001" x2="27.7839180001" y1="42.0509015" y2="4.34415649995"><stop offset="0" stop-color="#ab47bc"/><stop offset="1" stop-color="#ba68c8"/></linearGradient><linearGradient id="h" gradientUnits="userSpaceOnUse" x1="23.814786" x2="23.814786" y1="42.0509015" y2="4.3441580001"><stop offset="0" stop-color="#bdbdbd"/><stop offset="1" stop-color="#e0e0e0"/></linearGradient><path d="m27.289062 42.050781h3.96875v-1.984375h-3.96875zm0 0" fill="url(#b)"/><path d="m20.339844 42.050781h-3.96875v1.984375h3.96875zm0 0" fill="url(#c)"/><path d="m20.339844 42.050781h-3.96875v-1.984375h3.96875zm0 0" fill="url(#d)"/><path d="m27.289062 42.050781h3.96875v1.984375h-3.96875zm0 0" fill="url(#e)"/><path d="m20.339844 41.554688h6.949218v2.480468h-6.949218zm0 0" fill="url(#f)"/><path d="m23.816406 4.34375c10.410156 0 18.851563 8.441406 18.851563 18.855469 0 10.410156-8.441407 18.851562-18.851563 18.851562-10.414062 0-18.855468-8.441406-18.855468-18.851562 0-10.414063 8.441406-18.855469 18.855468-18.855469zm0 0" fill="url(#g)"/><path d="m23.816406 42.050781c-10.445312 0-18.855468-8.410156-18.855468-18.851562 0-.0625 0-.125 0-.1875.101562 10.359375 8.472656 18.667969 18.855468 18.667969 10.382813 0 18.753906-8.308594 18.851563-18.667969v.1875c0 10.441406-8.410157 18.851562-18.851563 18.851562zm0 0" fill-opacity=".196078"/><path d="m23.816406 4.34375c-10.445312 0-18.855468 8.410156-18.855468 18.855469v.183593c.101562-10.359374 8.472656-18.667968 18.855468-18.667968 10.382813 0 18.753906 8.308594 18.851563 18.667968 0-.0625 0-.125 0-.183593 0-10.445313-8.410157-18.855469-18.851563-18.855469zm0 0" fill="#fff" fill-opacity=".392157"/><path d="m23.816406 4.203125c-10.523437 0-18.996094 8.472656-18.996094 18.996094 0 10.519531 8.472657 18.992187 18.996094 18.992187 10.519532 0 18.992188-8.472656 18.992188-18.992187 0-10.523438-8.472656-18.996094-18.992188-18.996094zm0 .28125c10.367188 0 18.710938 8.34375 18.710938 18.714844 0 10.367187-8.34375 18.710937-18.710938 18.710937-10.371094 0-18.714844-8.34375-18.714844-18.710937 0-10.371094 8.34375-18.714844 18.714844-18.714844zm0 0" fill="#212121"/><path d="m31.933594 19.671875c-.027344 1.53125.136718 3.1875-.621094 4.582031-.515625.867188-1.347656 1.496094-2.226562 1.960938.117187 1.945312.15625 4.71875-.957032 5.980468-.59375.675782-1.335937 1.050782-2.652344 1.132813-2.007812.101563-4.0625.199219-6.039062-.277344-.9375-.273437-2.148438-.539062-2.457031-1.621093-.464844-.925782-.222657-1.972657-.304688-2.972657-.074219-4.144531.550781-8.261719 1.242188-12.339843-.277344-.277344-1.613281.132812-1.613281-.859376 0-.992187 2.304687-2.066406 3.507812-2.140624 1.90625-.414063 3.886719-.25 5.796875.015624 1.089844.425782 2.25.164063 3.355469.386719 3.035156 1.082031 2.953125 3.4375 2.96875 6.152344zm-2.164063 1.628906c-.070312-1.578125.152344-2.988281-.472656-4.34375-.585937-.875-1.582031-1.203125-1.164063.578125.328126 2.136719.488282 4.289063.6875 6.4375.9375-.527344.871094-1.75.949219-2.671875zm0 0" fill="url(#h)"/><path d="m22.34375 12.867188c-.851562 0-1.699219.070312-2.53125.25-1.203125.074218-3.507812 1.148437-3.507812 2.140624 0 .136719.023437.246094.066406.332032.390625-.894532 2.359375-1.769532 3.441406-1.835938 1.90625-.414062 3.886719-.25 5.796875.015625 1.089844.425781 2.25.164063 3.355469.386719 2.871094 1.023438 2.953125 3.191406 2.96875 5.722656 0-.070312 0-.136718 0-.207031-.015625-2.714844.066406-5.070313-2.96875-6.152344-1.105469-.222656-2.265625.039063-3.355469-.386719-1.074219-.148437-2.171875-.265624-3.265625-.265624zm-4.523438 3.828124c-.632812 3.777344-1.179687 7.59375-1.148437 11.429688.03125-3.816406.609375-7.613281 1.246094-11.371094-.023438-.023437-.058594-.042968-.097657-.058594zm10.242188.484376c-.050781.203124-.039062.527343.070312.992187.328126 2.136719.488282 4.289063.6875 6.4375.9375-.527344.871094-1.75.949219-2.675781-.007812-.15625-.011719-.3125-.015625-.46875-.058594.898437-.054687 2.011718-.933594 2.507812-.199218-2.148437-.359374-4.300781-.6875-6.4375-.03125-.128906-.054687-.25-.070312-.355468zm1.691406 3.023437v.480469c0-.160156 0-.320313 0-.480469zm2.175782.433594v.351562c.003906-.117187.003906-.234375 0-.351562zm-2.8125 6.199219c-.007813.003906-.019532.011718-.03125.015624.027343.421876.046874.882813.054687 1.355469.007813-.46875-.003906-.933593-.023437-1.371093zm-12.425782 2.519531c-.003906.25-.011718.496093-.003906.742187.003906-.246094.011719-.496094.003906-.742187zm0 0" fill="#fff"/><path d="m16.402344 15.601562c-.0625.125-.097656.246094-.097656.371094 0 .890625 1.078124.648438 1.496093.792969.039063-.230469.078125-.460937.117188-.6875-.230469-.234375-1.203125.015625-1.515625-.476563zm11.988281.605469c-.269531-.007812-.441406.269531-.316406 1.003907.167969-.515626.800781-.171876 1.222656.460937.386719.832031.449219 1.6875.457031 2.589844.003906-1.183594.035156-2.28125-.457031-3.34375-.273437-.414063-.636719-.703125-.90625-.710938zm3.542969 3.667969c-.003906.261719-.003906.53125 0 .796875 0-.097656 0-.191406 0-.285156 0-.171875 0-.34375 0-.511719zm-2.179688.804688c0 .253906-.003906.507812 0 .765624.003906-.0625.007813-.128906.015625-.1875-.007812-.195312-.011719-.386718-.015625-.578124zm2.175782.292968c-.003907 1.121094-.074219 2.246094-.617188 3.238282-.515625.867187-1.347656 1.496093-2.226562 1.964843.015624.234375.027343.480469.039062.734375.863281-.464844 1.679688-1.089844 2.1875-1.945312.664062-1.214844.621094-2.632813.617188-3.992188zm-15.257813 7.15625c-.003906.347656-.003906.695313.003906 1.042969.007813.074219.011719.148437.011719.222656.007812-.328125.015625-.65625-.011719-.976562 0-.097657-.003906-.195313-.003906-.289063zm12.46875.089844c-.03125 1.519531-.253906 3.078125-1.011719 3.933594-.675781.78125-1.652344 1.226562-2.652344 1.132812-2.007812.101563-4.0625.199219-6.039062-.273437-.9375-.277344-2.148438-.542969-2.457031-1.621094-.207031-.414063-.273438-.851563-.289063-1.292969-.015625.699219-.03125 1.402344.289063 2.046875.308593 1.082031 1.519531 1.34375 2.457031 1.621094 1.976562.476563 4.03125.375 6.039062.273437 1.066407-.050781 1.972657-.367187 2.652344-1.132812.882813-1 1.042969-2.953125 1.011719-4.6875zm0 0" fill-opacity=".235294"/><path d="m340.592475-5.186703c-.291639 16.331774 1.458194 33.996754-6.624367 48.870333-5.499475 9.249117-14.373628 15.95681-23.747733 20.91467 1.249881 20.748018 1.666508 50.328527-10.207358 63.785575-6.332729 7.207645-14.248639 11.207263-28.288965 12.08218-21.414622 1.08323-43.329196 2.124797-64.410516-2.958051-9.999045-2.916388-22.914479-5.749451-26.205831-17.290016-4.95786-9.874057-2.374773-21.039657-3.24969-31.705305-.791591-44.204112 5.874439-88.116586 13.248735-131.612432-2.958051-2.958051-17.20669 1.416531-17.20669-9.165791 0-10.582323 24.580986-22.039562 37.413094-22.831153 20.331392-4.416245 41.454375-2.666412 61.827429.16665 11.62389 4.541233 23.997708 1.749833 35.788249 4.124606 32.371909 11.540565 31.496992 36.663166 31.663643 65.618734zm-23.081129 17.373341c-.749929-16.831726 1.624845-31.871956-5.041185-46.328909-6.249404-9.332442-16.873389-12.832108-12.415481 6.166078 3.499665 22.78949 5.207836 45.745631 7.332633 68.66011 9.999045-5.624463 9.290779-18.664885 10.124033-28.497279zm0 0" fill="none" stroke="#212121" stroke-width="3" transform="matrix(.093759 0 0 .093759 0 20.158175)"/></svg>

<?xml version="1.0" encoding="UTF-8"?>
<svg xmlns="http://www.w3.org/2000/svg" xmlns:xlink="http://www.w3.org/1999/xlink" width="48px" height="48px" viewBox="0 0 48 48" version="1.1">
<defs>
<radialGradient id="radial0" gradientUnits="userSpaceOnUse" cx="450.908936" cy="189.579361" fx="450.908936" fy="189.579361" r="21.166656" gradientTransform="matrix(0.000000261256,-0.117199,-0.210958,-0.000000152308,66.784728,95.392994)">
<stop offset="0" style="stop-color:rgb(0%,0%,0%);stop-opacity:0.313726;"/>
<stop offset="0.222222" style="stop-color:rgb(0%,0%,0%);stop-opacity:0.27451;"/>
<stop offset="1" style="stop-color:rgb(0%,0%,0%);stop-opacity:0;"/>
</radialGradient>
<radialGradient id="radial1" gradientUnits="userSpaceOnUse" cx="450.908936" cy="189.579361" fx="450.908936" fy="189.579361" r="21.166656" gradientTransform="matrix(-0.000000261256,0.117199,0.210958,0.000000152308,-19.155178,-11.291223)">
<stop offset="0" style="stop-color:rgb(0%,0%,0%);stop-opacity:0.313726;"/>
<stop offset="0.222222" style="stop-color:rgb(0%,0%,0%);stop-opacity:0.27451;"/>
<stop offset="1" style="stop-color:rgb(0%,0%,0%);stop-opacity:0;"/>
</radialGradient>
<radialGradient id="radial2" gradientUnits="userSpaceOnUse" cx="450.908936" cy="189.579361" fx="450.908936" fy="189.579361" r="21.166656" gradientTransform="matrix(-0.000000261256,-0.117199,0.210958,-0.000000152308,-19.155178,95.392994)">
<stop offset="0" style="stop-color:rgb(0%,0%,0%);stop-opacity:0.313726;"/>
<stop offset="0.222222" style="stop-color:rgb(0%,0%,0%);stop-opacity:0.27451;"/>
<stop offset="1" style="stop-color:rgb(0%,0%,0%);stop-opacity:0;"/>
</radialGradient>
<radialGradient id="radial3" gradientUnits="userSpaceOnUse" cx="450.908936" cy="189.579361" fx="450.908936" fy="189.579361" r="21.166656" gradientTransform="matrix(0.000000261256,0.117199,-0.210958,0.000000152308,66.784725,-11.291224)">
<stop offset="0" style="stop-color:rgb(0%,0%,0%);stop-opacity:0.313726;"/>
<stop offset="0.222222" style="stop-color:rgb(0%,0%,0%);stop-opacity:0.27451;"/>
<stop offset="1" style="stop-color:rgb(0%,0%,0%);stop-opacity:0;"/>
</radialGradient>
<linearGradient id="linear0" gradientUnits="userSpaceOnUse" x1="255.323059" y1="233.5" x2="255.323044" y2="254.666656" gradientTransform="matrix(0.0200401,0,0,0.093759,18.698079,20.158175)">
<stop offset="0" style="stop-color:rgb(0%,0%,0%);stop-opacity:0.27451;"/>
<stop offset="1" style="stop-color:rgb(0%,0%,0%);stop-opacity:0;"/>
</linearGradient>
<linearGradient id="linear1" gradientUnits="userSpaceOnUse" x1="296.333344" y1="233.5" x2="296.333344" y2="-168.666672" gradientTransform="matrix(0.093759,0,0,0.093759,0,20.158175)">
<stop offset="0" style="stop-color:rgb(67.058825%,27.843139%,73.725492%);stop-opacity:1;"/>
<stop offset="1" style="stop-color:rgb(72.941178%,40.784314%,78.431374%);stop-opacity:1;"/>
</linearGradient>
<linearGradient id="linear2" gradientUnits="userSpaceOnUse" x1="254" y1="233.5" x2="254" y2="-168.666656" gradientTransform="matrix(0.093759,0,0,0.093759,0,20.158175)">
<stop offset="0" style="stop-color:rgb(74.117649%,74.117649%,74.117649%);stop-opacity:1;"/>
<stop offset="1" style="stop-color:rgb(87.843138%,87.843138%,87.843138%);stop-opacity:1;"/>
</linearGradient>
</defs>
<g id="surface1">
<path style=" stroke:none;fill-rule:nonzero;fill:url(#radial0);" d="M 27.289062 42.050781 L 31.257812 42.050781 L 31.257812 40.066406 L 27.289062 40.066406 Z M 27.289062 42.050781 "/>
<path style=" stroke:none;fill-rule:nonzero;fill:url(#radial1);" d="M 20.339844 42.050781 L 16.371094 42.050781 L 16.371094 44.035156 L 20.339844 44.035156 Z M 20.339844 42.050781 "/>
<path style=" stroke:none;fill-rule:nonzero;fill:url(#radial2);" d="M 20.339844 42.050781 L 16.371094 42.050781 L 16.371094 40.066406 L 20.339844 40.066406 Z M 20.339844 42.050781 "/>
<path style=" stroke:none;fill-rule:nonzero;fill:url(#radial3);" d="M 27.289062 42.050781 L 31.257812 42.050781 L 31.257812 44.035156 L 27.289062 44.035156 Z M 27.289062 42.050781 "/>
<path style=" stroke:none;fill-rule:nonzero;fill:url(#linear0);" d="M 20.339844 41.554688 L 27.289062 41.554688 L 27.289062 44.035156 L 20.339844 44.035156 Z M 20.339844 41.554688 "/>
<path style=" stroke:none;fill-rule:nonzero;fill:url(#linear1);" d="M 23.816406 4.34375 C 34.226562 4.34375 42.667969 12.785156 42.667969 23.199219 C 42.667969 33.609375 34.226562 42.050781 23.816406 42.050781 C 13.402344 42.050781 4.960938 33.609375 4.960938 23.199219 C 4.960938 12.785156 13.402344 4.34375 23.816406 4.34375 Z M 23.816406 4.34375 "/>
<path style=" stroke:none;fill-rule:nonzero;fill:rgb(0%,0%,0%);fill-opacity:0.196078;" d="M 23.816406 42.050781 C 13.371094 42.050781 4.960938 33.640625 4.960938 23.199219 C 4.960938 23.136719 4.960938 23.074219 4.960938 23.011719 C 5.0625 33.371094 13.433594 41.679688 23.816406 41.679688 C 34.199219 41.679688 42.570312 33.371094 42.667969 23.011719 C 42.667969 23.074219 42.667969 23.136719 42.667969 23.199219 C 42.667969 33.640625 34.257812 42.050781 23.816406 42.050781 Z M 23.816406 42.050781 "/>
<path style=" stroke:none;fill-rule:nonzero;fill:rgb(100%,100%,100%);fill-opacity:0.392157;" d="M 23.816406 4.34375 C 13.371094 4.34375 4.960938 12.753906 4.960938 23.199219 C 4.960938 23.257812 4.960938 23.320312 4.960938 23.382812 C 5.0625 13.023438 13.433594 4.714844 23.816406 4.714844 C 34.199219 4.714844 42.570312 13.023438 42.667969 23.382812 C 42.667969 23.320312 42.667969 23.257812 42.667969 23.199219 C 42.667969 12.753906 34.257812 4.34375 23.816406 4.34375 Z M 23.816406 4.34375 "/>
<path style=" stroke:none;fill-rule:nonzero;fill:rgb(12.941177%,12.941177%,12.941177%);fill-opacity:1;" d="M 23.816406 4.203125 C 13.292969 4.203125 4.820312 12.675781 4.820312 23.199219 C 4.820312 33.71875 13.292969 42.191406 23.816406 42.191406 C 34.335938 42.191406 42.808594 33.71875 42.808594 23.199219 C 42.808594 12.675781 34.335938 4.203125 23.816406 4.203125 Z M 23.816406 4.484375 C 34.183594 4.484375 42.527344 12.828125 42.527344 23.199219 C 42.527344 33.566406 34.183594 41.910156 23.816406 41.910156 C 13.445312 41.910156 5.101562 33.566406 5.101562 23.199219 C 5.101562 12.828125 13.445312 4.484375 23.816406 4.484375 Z M 23.816406 4.484375 "/>
<path style=" stroke:none;fill-rule:nonzero;fill:url(#linear2);" d="M 31.933594 19.671875 C 31.90625 21.203125 32.070312 22.859375 31.3125 24.253906 C 30.796875 25.121094 29.964844 25.75 29.085938 26.214844 C 29.203125 28.160156 29.242188 30.933594 28.128906 32.195312 C 27.535156 32.871094 26.792969 33.246094 25.476562 33.328125 C 23.46875 33.429688 21.414062 33.527344 19.4375 33.050781 C 18.5 32.777344 17.289062 32.511719 16.980469 31.429688 C 16.515625 30.503906 16.757812 29.457031 16.675781 28.457031 C 16.601562 24.3125 17.226562 20.195312 17.917969 16.117188 C 17.640625 15.839844 16.304688 16.25 16.304688 15.257812 C 16.304688 14.265625 18.609375 13.191406 19.8125 13.117188 C 21.71875 12.703125 23.699219 12.867188 25.609375 13.132812 C 26.699219 13.558594 27.859375 13.296875 28.964844 13.519531 C 32 14.601562 31.917969 16.957031 31.933594 19.671875 Z M 29.769531 21.300781 C 29.699219 19.722656 29.921875 18.3125 29.296875 16.957031 C 28.710938 16.082031 27.714844 15.753906 28.132812 17.535156 C 28.460938 19.671875 28.621094 21.824219 28.820312 23.972656 C 29.757812 23.445312 29.691406 22.222656 29.769531 21.300781 Z M 29.769531 21.300781 "/>
<path style=" stroke:none;fill-rule:nonzero;fill:rgb(100%,100%,100%);fill-opacity:1;" d="M 22.34375 12.867188 C 21.492188 12.867188 20.644531 12.9375 19.8125 13.117188 C 18.609375 13.191406 16.304688 14.265625 16.304688 15.257812 C 16.304688 15.394531 16.328125 15.503906 16.371094 15.589844 C 16.761719 14.695312 18.730469 13.820312 19.8125 13.753906 C 21.71875 13.339844 23.699219 13.503906 25.609375 13.769531 C 26.699219 14.195312 27.859375 13.933594 28.964844 14.15625 C 31.835938 15.179688 31.917969 17.347656 31.933594 19.878906 C 31.933594 19.808594 31.933594 19.742188 31.933594 19.671875 C 31.917969 16.957031 32 14.601562 28.964844 13.519531 C 27.859375 13.296875 26.699219 13.558594 25.609375 13.132812 C 24.535156 12.984375 23.4375 12.867188 22.34375 12.867188 Z M 17.820312 16.695312 C 17.1875 20.472656 16.640625 24.289062 16.671875 28.125 C 16.703125 24.308594 17.28125 20.511719 17.917969 16.753906 C 17.894531 16.730469 17.859375 16.710938 17.820312 16.695312 Z M 28.0625 17.179688 C 28.011719 17.382812 28.023438 17.707031 28.132812 18.171875 C 28.460938 20.308594 28.621094 22.460938 28.820312 24.609375 C 29.757812 24.082031 29.691406 22.859375 29.769531 21.933594 C 29.761719 21.777344 29.757812 21.621094 29.753906 21.464844 C 29.695312 22.363281 29.699219 23.476562 28.820312 23.972656 C 28.621094 21.824219 28.460938 19.671875 28.132812 17.535156 C 28.101562 17.40625 28.078125 17.285156 28.0625 17.179688 Z M 29.753906 20.203125 C 29.753906 20.363281 29.753906 20.523438 29.753906 20.683594 C 29.753906 20.523438 29.753906 20.363281 29.753906 20.203125 Z M 31.929688 20.636719 C 31.929688 20.753906 31.929688 20.871094 31.929688 20.988281 C 31.933594 20.871094 31.933594 20.753906 31.929688 20.636719 Z M 29.117188 26.835938 C 29.109375 26.839844 29.097656 26.847656 29.085938 26.851562 C 29.113281 27.273438 29.132812 27.734375 29.140625 28.207031 C 29.148438 27.738281 29.136719 27.273438 29.117188 26.835938 Z M 16.691406 29.355469 C 16.6875 29.605469 16.679688 29.851562 16.6875 30.097656 C 16.691406 29.851562 16.699219 29.601562 16.691406 29.355469 Z M 16.691406 29.355469 "/>
<path style=" stroke:none;fill-rule:nonzero;fill:rgb(0%,0%,0%);fill-opacity:0.235294;" d="M 16.402344 15.601562 C 16.339844 15.726562 16.304688 15.847656 16.304688 15.972656 C 16.304688 16.863281 17.382812 16.621094 17.800781 16.765625 C 17.839844 16.535156 17.878906 16.304688 17.917969 16.078125 C 17.6875 15.84375 16.714844 16.09375 16.402344 15.601562 Z M 28.390625 16.207031 C 28.121094 16.199219 27.949219 16.476562 28.074219 17.210938 C 28.242188 16.695312 28.875 17.039062 29.296875 17.671875 C 29.683594 18.503906 29.746094 19.359375 29.753906 20.261719 C 29.757812 19.078125 29.789062 17.980469 29.296875 16.917969 C 29.023438 16.503906 28.660156 16.214844 28.390625 16.207031 Z M 31.933594 19.875 C 31.929688 20.136719 31.929688 20.40625 31.933594 20.671875 C 31.933594 20.574219 31.933594 20.480469 31.933594 20.386719 C 31.933594 20.214844 31.933594 20.042969 31.933594 19.875 Z M 29.753906 20.679688 C 29.753906 20.933594 29.75 21.1875 29.753906 21.445312 C 29.757812 21.382812 29.761719 21.316406 29.769531 21.257812 C 29.761719 21.0625 29.757812 20.871094 29.753906 20.679688 Z M 31.929688 20.972656 C 31.925781 22.09375 31.855469 23.21875 31.3125 24.210938 C 30.796875 25.078125 29.964844 25.707031 29.085938 26.175781 C 29.101562 26.410156 29.113281 26.65625 29.125 26.910156 C 29.988281 26.445312 30.804688 25.820312 31.3125 24.964844 C 31.976562 23.75 31.933594 22.332031 31.929688 20.972656 Z M 16.671875 28.128906 C 16.667969 28.476562 16.667969 28.824219 16.675781 29.171875 C 16.683594 29.246094 16.6875 29.320312 16.6875 29.394531 C 16.695312 29.066406 16.703125 28.738281 16.675781 28.417969 C 16.675781 28.320312 16.671875 28.222656 16.671875 28.128906 Z M 29.140625 28.21875 C 29.109375 29.738281 28.886719 31.296875 28.128906 32.152344 C 27.453125 32.933594 26.476562 33.378906 25.476562 33.285156 C 23.46875 33.386719 21.414062 33.484375 19.4375 33.011719 C 18.5 32.734375 17.289062 32.46875 16.980469 31.390625 C 16.773438 30.976562 16.707031 30.539062 16.691406 30.097656 C 16.675781 30.796875 16.660156 31.5 16.980469 32.144531 C 17.289062 33.226562 18.5 33.488281 19.4375 33.765625 C 21.414062 34.242188 23.46875 34.140625 25.476562 34.039062 C 26.542969 33.988281 27.449219 33.671875 28.128906 32.90625 C 29.011719 31.90625 29.171875 29.953125 29.140625 28.21875 Z M 29.140625 28.21875 "/>
<path style="fill:none;stroke-width:3;stroke-linecap:butt;stroke-linejoin:miter;stroke:rgb(12.941177%,12.941177%,12.941177%);stroke-opacity:1;stroke-miterlimit:4;" d="M 340.592475 -5.186703 C 340.300836 11.145071 342.050669 28.810051 333.968108 43.68363 C 328.468633 52.932747 319.59448 59.64044 310.220375 64.5983 C 311.470256 85.346318 311.886883 114.926827 300.013017 128.383875 C 293.680288 135.59152 285.764378 139.591138 271.724052 140.466055 C 250.30943 141.549285 228.394856 142.590852 207.313536 137.508004 C 197.314491 134.591616 184.399057 131.758553 181.107705 120.217988 C 176.149845 110.343931 178.732932 99.178331 177.858015 88.512683 C 177.066424 44.308571 183.732454 0.396097 191.10675 -43.099749 C 188.148699 -46.0578 173.90006 -41.683218 173.90006 -52.26554 C 173.90006 -62.847863 198.481046 -74.305102 211.313154 -75.096693 C 231.644546 -79.512938 252.767529 -77.763105 273.140583 -74.930043 C 284.764473 -70.38881 297.138291 -73.18021 308.928832 -70.805437 C 341.300741 -59.264872 340.425824 -34.142271 340.592475 -5.186703 Z M 317.511346 12.186638 C 316.761417 -4.645088 319.136191 -19.685318 312.470161 -34.142271 C 306.220757 -43.474713 295.596772 -46.974379 300.05468 -27.976193 C 303.554345 -5.186703 305.262516 17.769438 307.387313 40.683917 C 317.386358 35.059454 316.678092 22.019032 317.511346 12.186638 Z M 317.511346 12.186638 " transform="matrix(0.093759,0,0,0.093759,0,20.158175)"/>
</g>
</svg>
